packages/components/bolt-icons/src/svgs/pega/pega-hammer-down.svg

<svg viewBox="0 0 32 32" xmlns="http://www.w3.org/2000/svg"><path fill="#fff" d="m15.4 25.72h-14a1 1 0 0 0 -1 1v4.28a1 1 0 0 0 1 1h14a1 1 0 0 0 1-1v-4.28a1 1 0 0 0 -1-1zm-1 4.28h-12v-2.28h12z"/><path fill="#fff" d="m31.13 19.24-12.72-7.49.79-1.39a.85.85 0 0 0 .23 0 1.15 1.15 0 0 0 .26 0 1 1 0 0 0 .61-.48l1.7-3a1 1 0 0 0 -.37-1.35l-9.16-5.39a1 1 0 0 0 -.77-.14 1 1 0 0 0 -.61.48l-1.7 3a1 1 0 0 0 .17 1.17l-3.95 7a1 1 0 0 0 -.49 0 1 1 0 0 0 -.61.48l-1.7 3a1 1 0 0 0 .36 1.35l9.17 5.39a1 1 0 0 0 .5.14 1.09 1.09 0 0 0 .26 0 1 1 0 0 0 .61-.48l1.7-3a1 1 0 0 0 -.16-1.17l.75-1.36 12.7 7.47a1 1 0 0 0 .5.14 1.09 1.09 0 0 0 .26 0 1 1 0 0 0 .61-.48l1.43-2.52a1 1 0 0 0 -.37-1.37zm-18.8-16.86 7.44 4.37-.71 1.25-7.44-4.36zm-1.07 3.36 3.86 2.26 2.33 1.37-3.9 6.87-6.19-3.62zm1.22 13.89-7.48-4.38.75-1.25 7.44 4.38zm16.35 1.61-11.83-6.97.44-.77 11.85 7z"/></svg>

<svg id="icon-hammer-down" data-name="hammer-down" xmlns="http://www.w3.org/2000/svg" viewBox="0 0 32 32"><path d="M15.4,25.72h-14a1,1,0,0,0-1,1V31a1,1,0,0,0,1,1h14a1,1,0,0,0,1-1V26.72A1,1,0,0,0,15.4,25.72ZM14.4,30h-12V27.72h12Z"/><path d="M31.13,19.24,18.41,11.75l.79-1.39a.85.85,0,0,0,.23,0,1.15,1.15,0,0,0,.26,0,1,1,0,0,0,.61-.48l1.7-3a1,1,0,0,0-.37-1.35L12.47.14A1,1,0,0,0,11.7,0a1,1,0,0,0-.61.48l-1.7,3a1,1,0,0,0,.17,1.17l-3.95,7a1,1,0,0,0-.49,0,1,1,0,0,0-.61.48l-1.7,3a1,1,0,0,0,.36,1.35l9.17,5.39a1,1,0,0,0,.5.14,1.09,1.09,0,0,0,.26,0,1,1,0,0,0,.61-.48l1.7-3a1,1,0,0,0-.16-1.17L16,16l12.7,7.47a1,1,0,0,0,.5.14,1.09,1.09,0,0,0,.26,0,1,1,0,0,0,.61-.48l1.43-2.52A1,1,0,0,0,31.13,19.24ZM12.33,2.38l7.44,4.37L19.06,8,11.62,3.64ZM11.26,5.74,15.12,8l2.33,1.37-3.9,6.87L7.36,12.62Zm1.22,13.89L5,15.25,5.75,14l7.44,4.38Zm16.35,1.61L17,14.27l.44-.77,11.85,7Z"/></svg>
